plasma/desktoptheme/Materia/icons/kate.svg

<svg xmlns="http://www.w3.org/2000/svg" width="32" height="32" version="1">
 <g id="kate">
  <rect style="opacity:0.001" width="32" height="32" x="0" y="0"/>
  <circle style="opacity:0.2" cx="16" cy="17" r="14"/>
  <circle style="fill:#e4e4e4" cx="16" cy="16" r="14"/>
  <path style="opacity:0.1" d="M 14.986328,7.0039062 C 13.5115,7.0522186 11.847758,7.5067741 10.230469,8.6660156 8.5514177,9.8695307 7.8144594,10.197616 7,10.597656 c 0.7203879,0.05439 5.000753,-0.544194 5.814453,1.916016 -2.9202125,1.003811 -4.0847525,2.591984 -3.736328,4.4375 0.013831,0.08563 0.029867,0.172259 0.050781,0.259766 0.00613,0.02343 0.012929,0.04681 0.019531,0.07031 0.067267,0.259344 0.1568278,0.523742 0.2890625,0.798828 0.1995631,0.41515 0.4305015,0.754152 0.6757815,1.0625 0.05725,0.07811 0.108326,0.155897 0.169922,0.234375 -0.0613,-0.07722 -0.109006,-0.152676 -0.164062,-0.228515 1.38331,1.733103 3.451631,2.035902 5.849609,3.623046 C 18.175548,24.232091 18.908074,24.975401 20.332031,27 20.03592,24.202639 18.47551,20.598254 17.835938,19.009766 l -0.04297,-0.132813 c 2.009135,1.386643 4.393463,1.910222 7.207031,2.109375 -4.466853,-3.146225 -5.314314,-3.593561 -7.871094,-5.75 -1.715323,0.08555 -1.527539,0.07151 -2.539062,0.128906 0.304131,0.501645 0.623204,0.957269 0.953125,1.375 0.656759,1.616938 0.548518,3.328139 -1.330078,3.714844 -2.278975,0.46912 -4.765373,-1.475768 -4.140625,-3.560547 0.678406,-2.263829 3.695537,-1.829959 6.767578,-2.222656 3.072041,-0.392698 5.880075,-3.373538 7.568359,-5.5800781 C 21.945911,9.923079 18.913593,10.700726 15.453125,11.710938 14.771887,10.35864 14.019183,7.9458731 18.603516,7.7734375 18.435849,7.6817972 18.253151,7.602717 18.0625,7.53125 c 0,0 -0.002,-0.00195 -0.002,-0.00195 C 17.240977,7.1964442 16.18249,6.9647225 14.986328,7.0039062 Z"/>
  <path style="fill:#3aaaff" d="M 12.835074,11.564375 C 12.066873,9.0409139 7.7256503,9.6532454 7.0000001,9.5984618 7.8144595,9.1984211 8.5458683,9.3463718 10.22492,8.1428567 c 3.234578,-2.318483 5.503922,-2.3492985 7.218849,-1.4285714 -4.688363,0.1763485 -2.635348,2.7624258 -1.944795,4.0940957 -0.87818,0.252398 -2.264454,0.633413 -2.6639,0.755994 z"/>
  <path style="fill:#008bff" d="m 24.407893,8.0919782 c -1.688284,2.2065398 -4.49523,5.1877298 -7.567271,5.5804278 -3.072041,0.392697 -6.089694,-0.04234 -6.7681,2.221489 -0.6247476,2.084779 1.861265,4.031235 4.14024,3.562115 2.43466,-0.50117 1.908859,-3.231633 0.577197,-5.091008 1.011523,-0.05739 0.216603,0.291977 1.931925,0.206426 l 1.114165,3.437488 c 0.639573,1.588488 2.199149,5.193723 2.49526,7.991084 -1.423957,-2.024599 -2.156352,-2.768635 -4.36315,-4.229242 -2.826763,-1.870943 -5.205077,-1.93428 -6.5301178,-4.690753 -1.3221799,-2.750516 0.7166128,-4.731819 3.8482568,-5.589861 4.47535,-1.22621 8.13171,-2.3887658 11.121595,-3.3981658 z"/>
  <path style="fill:#3aaaff" d="m 14.59021,14.365002 c 1.011523,-0.0574 0.823364,-0.04254 2.538687,-0.128087 2.55678,2.156439 3.40425,2.60286 7.871103,5.749085 -4.489787,-0.317801 -7.886881,-1.459625 -10.40979,-5.620998 z"/>
  <path style="fill:#00ccff" d="M 7.0000001,9.5984618 C 7.8144595,9.1984211 8.550497,8.8686718 10.229548,7.6651567 13.464127,5.3466737 16.888688,5.8523025 18.603616,6.7730295 13.915252,6.9493781 14.519335,7.8736939 14.502034,8.5983018 11.387072,7.9486196 10.47757,8.8325725 7.0000001,9.5984618 Z"/>
  <path style="fill:#008bff" d="m 18.603616,6.7730295 c -4.688364,0.1763486 -3.795195,2.7036816 -3.104642,4.0353515 -0.547105,0.157243 -0.7795,0.336379 -1.510868,0.527902 -2.950992,-5.2028156 2.206978,-5.8796701 4.61551,-4.5632535 z"/>
  <path style="fill:#008bff" d="m 18.603616,6.7730295 c -4.688364,0.1763486 -3.795195,2.7036816 -3.104642,4.0353515 -0.547105,0.157243 -0.7795,0.336379 -1.510868,0.527902 -2.950992,-5.2028156 2.206978,-5.8796701 4.61551,-4.5632535 z"/>
  <path style="fill:#00ccff" d="M 10.282269,18.376144 C 7.98804,15.45314 8.7003506,12.773951 13.192782,11.381934 17.626067,10.008242 21.418008,9.1013782 24.407893,8.0919782 16.339296,11.133926 6.1468746,13.166542 10.282269,18.376144 Z"/>
  <path style="opacity:0.2;fill:#ffffff" d="M 16,2 A 14,14 0 0 0 2,16 14,14 0 0 0 2.0214844,16.585938 14,14 0 0 1 16,3 14,14 0 0 1 29.978516,16.414062 14,14 0 0 0 30,16 14,14 0 0 0 16,2 Z"/>
 </g>
 <g id="22-22-kate" transform="translate(27,5)">
  <rect style="opacity:0.001" width="22" height="22" x="5" y="5"/>
  <path style="opacity:1;fill:#dfdfdf" d="m 15.211587,8.003428 c -1.147087,0.03865 -2.441108,0.602556 -3.698999,1.529931 -1.305928,0.962793 -1.8791179,1.225256 -2.512586,1.545282 0.5603014,0.04351 3.889472,-0.635617 4.52235,1.332512 -2.271275,0.803034 -3.7772105,2.073546 -3.506213,3.54993 0.01076,0.0685 0.02323,0.137804 0.0395,0.207808 0.0048,0.01874 0.01006,0.03745 0.01519,0.05625 0.05232,0.207472 0.121977,0.418985 0.224826,0.63905 0.155216,0.332113 0.334834,0.603309 0.525607,0.849984 0.0013,0.0018 0.0033,0.0029 0.0046,0.0047 1.075909,1.386455 2.885214,1.62869 4.750307,2.89838 1.716397,1.168462 2.28614,1.763099 3.393662,3.382745 -0.230309,-2.237844 -1.044391,-5.121295 -1.541836,-6.392061 l -0.03342,-0.106247 c 1.56266,1.109291 3.417136,1.327989 5.605466,1.487308 -3.474218,-2.51693 -4.133353,-2.674633 -6.121959,-4.399751 -1.33414,0.06844 -1.188086,0.0572 -1.974825,0.103123 0.236546,0.401307 0.484714,0.765799 0.741319,1.099978 0.510813,1.293524 0.426625,2.662458 -1.034504,2.971817 -1.772536,0.375288 -4.306583,-1.180591 -3.820668,-2.848381 0.527649,-1.811028 3.474488,-1.463939 5.863852,-1.77809 C 19.042621,13.823543 20.68689,11.765197 22,10 20.084884,10.665013 18.066474,10.960839 15.375,11.768992 14.845149,10.687175 14.459409,8.757001 18.025,8.619055 17.894593,8.545745 17.752495,8.482481 17.60421,8.425309 16.96652,8.158592 16.142922,7.972064 15.211633,8.003442 Z"/>
 </g>
</svg>

<?xml version="1.0" encoding="UTF-8"?>
<svg width="32" height="32" version="1" xmlns="http://www.w3.org/2000/svg">
 <g id="kate">
  <rect width="32" height="32" opacity=".001"/>
  <circle cx="16" cy="17" r="14" opacity=".2"/>
  <circle cx="16" cy="16" r="14" fill="#e4e4e4"/>
  <path d="m14.986 7.0039c-1.4748 0.048312-3.1386 0.50287-4.7559 1.6621-1.6791 1.2035-2.416 1.5316-3.2305 1.9316 0.72039 0.05439 5.0008-0.54419 5.8145 1.916-2.9202 1.0038-4.0848 2.592-3.7363 4.4375 0.013831 0.08563 0.029867 0.17226 0.050781 0.25977 0.00613 0.02343 0.012929 0.04681 0.019531 0.07031 0.067267 0.25934 0.15683 0.52374 0.28906 0.79883 0.19956 0.41515 0.4305 0.75415 0.67578 1.0625 0.05725 0.07811 0.10833 0.1559 0.16992 0.23438-0.0613-0.07722-0.10901-0.15268-0.16406-0.22852 1.3833 1.7331 3.4516 2.0359 5.8496 3.623 2.2068 1.4606 2.9393 2.2039 4.3633 4.2285-0.29611-2.7974-1.8565-6.4017-2.4961-7.9902l-0.04297-0.13281c2.0091 1.3866 4.3935 1.9102 7.207 2.1094-4.4669-3.1462-5.3143-3.5936-7.8711-5.75-1.7153 0.08555-1.5275 0.07151-2.5391 0.12891 0.30413 0.50164 0.6232 0.95727 0.95312 1.375 0.65676 1.6169 0.54852 3.3281-1.3301 3.7148-2.279 0.46912-4.7654-1.4758-4.1406-3.5605 0.67841-2.2638 3.6955-1.83 6.7676-2.2227 3.072-0.3927 5.8801-3.3735 7.5684-5.5801-2.4623 0.83128-5.4946 1.6089-8.9551 2.6191-0.68124-1.3523-1.4339-3.7651 3.1504-3.9375-0.16767-0.09164-0.35036-0.17072-0.54102-0.24219l-2e-3 -0.00195c-0.81952-0.33286-1.878-0.56458-3.0742-0.52539z" opacity=".1"/>
  <path d="m12.835 11.564c-0.7682-2.5235-5.1094-1.9111-5.8351-1.9659 0.81446-0.40004 1.5459-0.25209 3.2249-1.4556 3.2346-2.3185 5.5039-2.3493 7.2188-1.4286-4.6884 0.17635-2.6353 2.7624-1.9448 4.0941-0.87818 0.2524-2.2645 0.63341-2.6639 0.75599z" fill="#3aaaff"/>
  <path d="m24.408 8.092c-1.6883 2.2065-4.4952 5.1877-7.5673 5.5804-3.072 0.3927-6.0897-0.04234-6.7681 2.2215-0.62475 2.0848 1.8613 4.0312 4.1402 3.5621 2.4347-0.50117 1.9089-3.2316 0.5772-5.091 1.0115-0.05739 0.2166 0.29198 1.9319 0.20643l1.1142 3.4375c0.63957 1.5885 2.1991 5.1937 2.4953 7.9911-1.424-2.0246-2.1564-2.7686-4.3632-4.2292-2.8268-1.8709-5.2051-1.9343-6.5301-4.6908-1.3222-2.7505 0.71661-4.7318 3.8483-5.5899 4.4754-1.2262 8.1317-2.3888 11.122-3.3982z" fill="#008bff"/>
  <path d="m14.59 14.365c1.0115-0.0574 0.82336-0.04254 2.5387-0.12809 2.5568 2.1564 3.4042 2.6029 7.8711 5.7491-4.4898-0.3178-7.8869-1.4596-10.41-5.621z" fill="#3aaaff"/>
  <path d="m7 9.5985c0.81446-0.40004 1.5505-0.72979 3.2295-1.9333 3.2346-2.3185 6.6591-1.8129 8.3741-0.89213-4.6884 0.17635-4.0843 1.1007-4.1016 1.8253-3.115-0.64968-4.0245 0.23427-7.502 1.0002z" fill="#0cf"/>
  <path d="m18.604 6.773c-4.6884 0.17635-3.7952 2.7037-3.1046 4.0354-0.5471 0.15724-0.7795 0.33638-1.5109 0.5279-2.951-5.2028 2.207-5.8797 4.6155-4.5633z" fill="#008bff"/>
  <path d="m18.604 6.773c-4.6884 0.17635-3.7952 2.7037-3.1046 4.0354-0.5471 0.15724-0.7795 0.33638-1.5109 0.5279-2.951-5.2028 2.207-5.8797 4.6155-4.5633z" fill="#008bff"/>
  <path d="m10.282 18.376c-2.2942-2.923-1.5819-5.6022 2.9105-6.9942 4.4333-1.3737 8.2252-2.2806 11.215-3.29-8.0686 3.0419-18.261 5.0746-14.126 10.284z" fill="#0cf"/>
  <path d="M 16,2 A 14,14 0 0 0 2,16 14,14 0 0 0 2.0214844,16.585938 14,14 0 0 1 16,3 14,14 0 0 1 29.978516,16.414062 14,14 0 0 0 30,16 14,14 0 0 0 16,2 Z" fill="#fff" opacity=".2"/>
 </g>
 <g id="22-22-kate" transform="translate(27,5)">
  <rect x="5" y="5" width="22" height="22" opacity=".001"/>
  <path d="m15.212 8.0034c-1.1471 0.03865-2.4411 0.60256-3.699 1.5299-1.3059 0.96279-1.8791 1.2253-2.5126 1.5453 0.5603 0.04351 3.8895-0.63562 4.5224 1.3325-2.2713 0.80303-3.7772 2.0735-3.5062 3.5499 0.01076 0.0685 0.02323 0.1378 0.0395 0.20781 0.0048 0.01874 0.01006 0.03745 0.01519 0.05625 0.05232 0.20747 0.12198 0.41898 0.22483 0.63905 0.15522 0.33211 0.33483 0.60331 0.52561 0.84998 0.0013 0.0018 0.0033 0.0029 0.0046 0.0047 1.0759 1.3865 2.8852 1.6287 4.7503 2.8984 1.7164 1.1685 2.2861 1.7631 3.3937 3.3827-0.23031-2.2378-1.0444-5.1213-1.5418-6.3921l-0.03342-0.10625c1.5627 1.1093 3.4171 1.328 5.6055 1.4873-3.4742-2.5169-4.1334-2.6746-6.122-4.3998-1.3341 0.06844-1.1881 0.0572-1.9748 0.10312 0.23655 0.40131 0.48471 0.7658 0.74132 1.1 0.51081 1.2935 0.42662 2.6625-1.0345 2.9718-1.7725 0.37529-4.3066-1.1806-3.8207-2.8484 0.52765-1.811 3.4745-1.4639 5.8639-1.7781 2.3894-0.31415 4.0336-2.3725 5.3467-4.1377-1.9151 0.66501-3.9335 0.96084-6.625 1.769-0.52985-1.0818-0.91559-3.012 2.65-3.1499-0.13041-0.07331-0.2725-0.13657-0.42079-0.19375-0.63769-0.26672-1.4613-0.45324-2.3926-0.42187z" fill="#dfdfdf"/>
 </g>
</svg>
